icons/curve-32.svg

<svg id="icons" xmlns="http://www.w3.org/2000/svg" viewBox="0 0 32 32"><defs><style>.cls-1{fill:none;}</style></defs><path d="M26,3V4.1554A24.37046,24.37046,0,0,0,12.48352,10H10v2.47455A24.36317,24.36317,0,0,0,4.14447,26H3v3H6V26H5.1438a23.38161,23.38161,0,0,1,5.73962-13H13V10.88434A23.3957,23.3957,0,0,1,26,5.15942V6h3V3ZM5,28H4V27H5Zm7-16H11V11h1ZM28,5H27V4h1Z"/><rect class="cls-1" width="32" height="32"/></svg>

<svg xmlns="http://www.w3.org/2000/svg" viewBox="0 0 32 32"><path d="M26 3v1.155A24.37 24.37 0 0 0 12.484 10H10v2.475A24.363 24.363 0 0 0 4.144 26H3v3h3v-3h-.856a23.382 23.382 0 0 1 5.74-13H13v-2.116A23.396 23.396 0 0 1 26 5.16V6h3V3zM5 28H4v-1h1zm7-16h-1v-1h1zm16-7h-1V4h1z"/><path fill="none" d="M0 0h32v32H0z"/></svg>
